www/assets/icons/area_chart.svg

<svg xmlns="http://www.w3.org/2000/svg" width="24" height="24" viewBox="0 0 24 24" fill='currentColor'><path d="M3 13.5v7h18V19l-9-7-4 5.5zm0-6 4 3 5-7 5 4h4v8.97l-9.4-7.31-3.98 5.48L3 10.94z"/></svg>

<svg width="24" height="24" viewBox="0 0 24 24" xmlns="http://www.w3.org/2000/svg" fill='currentColor'><path d="M3 13.5V20.5H21V19L12 12L8 17.5L3 13.5ZM3 7.5L7 10.5L12 3.5L17 7.5H21V16.47L11.6 9.16L7.62 14.64L3 10.94V7.5Z"/></svg>
